X: 778
T: Kitty Come Over
C:McNamara.
B:O'Neill's Music of Ireland
N:O'Neill's - 778
Z:Transcribed by Stephen Foy (shf@access.digex.net)
Z:abc 1.6
M:6/8
R:Jig
K:G
c|BcA BGE|GAG GBd|efg ded|BAA A2 c|\
BcA BGE|GAG GBd|efg dec|BGG G2:|
||f|gfg efg|fag fed|gfg efd|eAA A2 c|\
BcA BGE|GAG GBd|efg dec|BGG G2:|


